!!!COM: Grieg, Edvard
!!!CDT: 1843/06/15/-1907/09/04/
!!!OPR: Four Piano Pieces, Op. 1
!!!OPS: Op. 1
!!!ONM: No. 3
!!!OTL: Mazurka
!!!OMD: Con grazia
**kern	**kern	**dynam
*staff2	*staff1	*staff1/2
*Ipiano	*Ipiano	*Ipiano
*>[I,A,A1,A,A2,B,B1,B,B2,C]	*>[I,A,A1,A,A2,B,B1,B,B2,C]	*>[I,A,A1,A,A2,B,B1,B,B2,C]
*>norep[I,A,A2,B,B2,C]	*>norep[I,A,A2,B,B2,C]	*>norep[I,A,A2,B,B2,C]
*>I	*>I	*>I
*clefF4	*clefG2	*clefG2
*k[]	*k[]	*k[]
*a:	*a:	*a:
*M3/4	*M3/4	*M3/4
*MM120	*MM120	*MM120
16r	(16ee\LK	p
4r	8.ff'\)	.
.	16ff\Jk	.
=1!|:	=1!|:	=1!|:
*>A	*>A	*>A
4EE/	[2g#/	.
4BB\ 4G#\	.	.
4F\ 4d\	16g#/LL]	.
.	(16a/	.
.	16g#/	.
.	16a/JJ	.
=2	=2	=2
4A\ 4f\	8b'\)	.
.	8r	.
4G#\ 4e\	8.r	.
.	(16ee\LK	.
4D\ &(4B\&)	8.ff'\)	.
.	16ff\Jk	.
=3	=3	=3
4EE/	[2a/	.
4C\ 4A\	.	.
4E\ 4c\	16a/LL]	.
.	(16b/	.
.	16a/	.
.	16b/JJ	.
=4	=4	=4
4F\ 4d\	8cc'\)	.
.	8r	.
4E\ [4c\	8.r	.
.	(16ee\	.
4D#\ &(4c\]&)	8.a'\ 8.aa'\L)	.
.	16a\ 16aa\Jk	.
=5	=5	=5
*	*^	*
4EE/	4a/ (4aa/	2.ddn\	<
4BB\ (4G#\	&(2g#/&) 2gg#/)	.	.
4F\ 4dn\)	.	.	.
=6	=6	=6	=6
4A\ 4f\	4r	4r	.
4G#\ 4e\	4r	8.r	.
.	.	16g#/ (16gg#/	.
4D\ &(4B\&)	4ee\	8.b/ 8.bb/L)	.
.	.	16b/ 16bb/Jk	.
*	*v	*v	*
=7	=7	=7
*	*^	*
*	*	*^	*
4EE/	4b/ (4bb/	2.dd#\	4r	.
2r	2a/ [2aa/)	.	4c\ (4a\	.
.	.	.	4B\ 4gn\	.
*	*	*v	*v	*
=8	=8	=8	=8
2.r	4a/) 4aa/]	[4A\ 4f#\	.
.	8r	4A\] [4fn\	.
.	8ee/ (8eee/L	.	.
.	8ffn'/ 8fffn'/)	4d#\ 4f\]	.
.	16r	.	.
.	16ff/ 16fff/Jk	.	.
*	*v	*v	*
=9	=9	=9
4DDD/ 4EE/	[2g#\ [2gg#\	f
4BB\ 4G#\	.	.
4F\ 4dn\	16g#\] 16gg#\LL]	.
.	16a\ (16aa\	.
.	16g#\ 16gg#\	.
.	16a\ 16aa\JJ	.
=10	=10	=10
4A\ 4f\	8b\ 8bb\)	.
.	8r	.
4G#\ 4e\	8.r	.
.	16ee\ (16eee\LK	.
4D\ &(4B\&)	8ff'\ 8fff'\)	.
.	16r	.
.	16ff\ 16fff\Jk	.
=11	=11	=11
(4EE/	[2a\ [2aa\	p
4E\ 4c\	.	.
4A\ 4e\)	16a\] 16aa\LL]	.
.	16b\ (16bb\	<
.	16a\ 16aa\	.
.	16b\ 16bb\JJ)	.
=12	=12	=12
(4FF/	[2cc\ [2ccc\	.
4A\ 4e\	.	.
4c\ 4a\)	16cc\] 16ccc\LL]	<
.	16dd\ 16ddd\	.
.	16cc\ 16ccc\	.
.	16dd\ 16ddd\JJ	.
=13	=13	=13
*>A1	*>A1	*>A1
(4FF#/	[2ee\ [2eee\	.
4C\ 4A\	.	.
4E\ 4e\)	16ee\] 16eee\LL]	>
.	16ff#\ 16fff#\	.
.	16ee\ 16eee\	.
.	16ff#\ 16fff#\JJ	.
=14	=14	=14
*^	*	*
4r	2.AA#\ 2.G\	12r	.
.	.	12gg\L	f
.	.	12ggg\J	.
4d/	.	12fff#\L	.
.	.	12eee\	.
.	.	12aa#\J	>
4c#/	.	12gg\L	.
.	.	12ff#\	.
.	.	12ee\J	.
*v	*v	*	*
=15	=15	=15
*^	*^	*
(BBq/	.	.	.	.
4e/	2G\)	12bb\L	2r	.
.	.	12A/	.	.
.	.	12c#/J	.	.
4A#/	.	12e/L	.	.
.	.	12g/	.	.
.	.	12cc/J	.	.
4An/	4F#\	12a#/L	4d\	.
.	.	12b/	.	.
.	.	12gg/J	.	.
*v	*v	*	*	*
=16	=16	=16	=16
8EE'/ 8BB'/ 8G'/	4r	8e'/	.
8r	.	8r	.
4r	8gg/ 8eee/	8e\ 8b\	pp
.	8r	16r	.
.	.	(16ee\LK	.
4r	4r	8.ff'\)	.
.	.	16ff\Jk	.
*	*v	*v	*
=17:|!	=17:|!	=17:|!
*>A2	*>A2	*>A2
4FFF#/ 4FF#/	12ee\ 12eee\L	.
.	12ddd\	.
.	12eee\J	.
[2F#\ [2c\ [2e\ [2a\	12ddd^\L	.
.	12ccc\	.
.	12aa\J	.
.	12ee\L	.
.	12dd\	.
.	12ee\J	.
=18	=18	=18
4F#\] 4c\] 4e\] 4a\]	12dd\L	.
.	12cc\	.
.	12a\J	.
4r	12e/L	.
.	12d/	.
.	12e/J	.
4r	12d/L	.
.	12c/	.
.	12A/J	.
=19	=19	=19
*	*^	*
4FFF/ (4GG/	12r	4r	.
.	12e/L	.	p
.	12f/J	.	.
4E-\	12f#/L	4c\	<
.	12g/	.	.
.	12g#/J	.	.
4D\)	12a/L	4B\ 4fn\	>
.	12gn/	.	.
.	12ee/J	.	.
=20	=20	=20	=20
8CC/ 8En/	8c/	4r	.
8r	8r	.	.
2r	2ee/ 2ccc/	2c\ 2g\	pp
*	*v	*v	*
=21!|:	=21!|:	=21!|:
*>B	*>B	*>B
*k[b-]	*k[b-]	*k[b-]
*^	*^	*
(12C/L	2FF\	(12c/L	4A\	p
12D/	.	12d/	.	.
12C/J	.	12c/J	.	.
8.A/L)	.	8.a/L)	4r	.
16A/Jk	.	16a/Jk	.	.
8.C/L	4r	8.c/L	4r	.
16C/Jk	.	16c/Jk	.	.
=22	=22	=22	=22	=22
4D/	[4FF\	(12b-/L	[4B-\	<
.	.	12d/	.	.
.	.	12b-/J	.	.
2D-/	2FF\]	2e/)	2B-\]	.
=23	=23	=23	=23	=23
(12C/L	2FF\	(12c/L	4A\	.
12Dn/	.	12dn/	.	.
12C/J	.	12c/J	.	.
8.A/L)	.	8.a'/L)	4r	.
(16A/Jk	.	(16a/Jk	.	.
8.C/L)	4r	8.c'/L)	4r	.
16C/Jk	.	16c/Jk	.	.
=24	=24	=24	=24	=24
4D/	[4FF\	(12b-/L	[4B-\	<
.	.	12c/	.	.
.	.	12b-/J	.	.
2D-/	2FF\]	2e/)	2B-\]	.
=25	=25	=25	=25	=25
12c/L	4F\	(12cc/L	4a\	mf
12dn/	.	12ddn/	.	.
12c/J	.	12cc/J	.	.
&(4a'/&)	4r	4aa'/)	4r	.
12c/L	4r	(12cc/L	4r	.
12d/	.	12dd/	.	.
12c/J	.	12cc/J	.	.
=26	=26	=26	=26	=26
&(4a'/&)	4r	4aa'/)	4r	.
2r	2D\ 2c\ 2f\	(12cc/L	4a-\	.
.	.	12dd/	.	.
.	.	12cc/J	.	.
.	.	4aa-'/)	4r	.
*v	*v	*	*	*
=27	=27	=27	=27
2.D-\ 2.Bn\ 2.f\	(12bn/L	[2.g\	.
.	12cc/	.	.
.	12b/J	.	.
.	8.gg'/L)	.	.
.	(16gg/Jk	.	.
.	8.b'/L)	.	.
.	16gg/Jk	.	.
=28	=28	=28	=28
*^	*	*	*
4e/	2.C\	8cc\L	4g/]	>
.	.	8dd\	.	.
4A/ [4c/	.	[8cc\J	4f/ 4ff/	.
.	.	8cc\L]	.	.
8G/ 8c/]	.	8dd\	8e/ 8cc/) 8ee/	.
8r	.	(8cc\J	8r	.
=29	=29	=29	=29	=29
(12C/L	2FF\	(12c/L	4A\	p
12D/	.	12d/	.	.
12C/J	.	12c/J	.	.
8.A'/L)	.	8.a'/L)	4r	.
(16A/Jk	.	16a/Jk	.	.
8.C'/L)	4r	8.c'/L	4r	.
16C/Jk	.	16c/Jk	.	.
=30	=30	=30	=30	=30
4D/	2.FF\	12b-/L	[4B-\	>
.	.	12f/	.	.
.	.	12b-/J	.	.
2D-^/	.	(4f#^/	2B-\] 2e\	.
.	.	4g/)	.	.
=31	=31	=31	=31	=31
(12C/L	2FF\	(12c/L	4A\	.
12Dn/	.	12dn/	.	.
12C/J	.	12c/J	.	.
8.A'/L)	.	8.a'/L)	4r	.
(16A/Jk	.	16a/Jk	.	.
8.C'/L)	4r	8.c'/L	4r	.
16C/Jk	.	16c/Jk	.	.
=32	=32	=32	=32	=32
4D/	[4FF\	12b-/L	[4B-\	.
.	.	12f/	.	.
.	.	[12b-/J	.	.
(4F#/	2FF^\] 2D-^\	2b-/]	2B-\] 2e\	.
&(4G/&))	.	.	.	.
*v	*v	*	*	*
=33	=33	=33	=33
4FFn'/ 4Fn'/	(12cc/L	4a\	.
.	12dd/	.	.
.	12cc/J	.	.
4C'\ 4c'\	8.aa'/L)	4r	.
.	(16aa/k	.	.
4EE'/ 4E'/	8.cc'/)	4a\	.
.	16cc/Jk	.	.
=34	=34	=34	=34
4DD'/ 4D'/	4a\	(12b-/L	.
.	.	12cc/	.
.	.	12b-/J	.
4BB-'\ 4B-'\	4aa'/)	4r	.
4DD'/ 4D'/	4r	4r	.
=35	=35	=35	=35
4EE'/ 4E'/	(12b-/L	4g\	.
.	12cc/	.	.
.	12b-/J	.	.
4BB-'\ 4B-'\	8.gg'/L)	4r	.
.	16gg/Jk	.	.
4DD'/ 4D'/	8.b-'/L	4g\	.
.	16b-/Jk	.	.
=36	=36	=36	=36
4CC#'/ 4C#'/	4g\	(12a/L	.
.	.	12b-/	.
.	.	12a/J	.
4AA'\ 4A'\	4gg'/)	4r	.
4CC#'/ 4C#'/	4r	4r	.
=37	=37	=37	=37
4DD'/ 4D'/	6f\	(12a/L	.
.	.	12b-/	.
.	12f\	12a/J	<
4AA'\ 4A'\	8.ff/L)	4r	.
.	16ff/Jk	.	.
4CC#/ 4C#/	6f\	(12a/L	.
.	.	12b-/	.
.	12f\	12a/J	.
=38	=38	=38	=38
4EE/ 4E/	4r	8.ff/L)	.
.	.	(16ff/Jk	.
4CC/ 4D/	4ff\	8.f'/) 8.a'/L	.
.	.	16f/ (16a/Jk	.
&(4CCn/&) 4Cn/	8.ff/L)	4r	.
.	16ff/Jk	.	.
=39	=39	=39	=39
2BB-\ 2G\ [2d\	(12f#/L	2fn\	.
.	12g/	.	.
.	12cc#/J	.	.
.	12ee/L	.	.
.	12dd/	.	.
.	12cc#/J	.	.
4C\ 4B-\ 4d\]	12ccn/L	4e\	.
.	12bn/	.	.
.	12b-/J)	.	.
=40	=40	=40	=40
*^	*	*	*
12B-/L	2.C#\	12b-/L	2.e^\ 2.gn^\	>
12G#/	.	12g#/	.	.
12A/J	.	12a/J	.	.
12B-/L	.	12b-/L	.	.
12G#/	.	12g#/	.	.
12A/J	.	12a/J	.	.
12B-/L	.	12b-/L	.	.
12G#/	.	12g#/	.	.
12A/J	.	12a/J	.	.
=41	=41	=41	=41	=41
(2f/	2.Cn\ 2.Gn\ 2.B-\	(4gn\	12gn/L	.
.	.	.	12gg/	.
.	.	.	12ff#/J	.
.	.	12ffn\L	2r	>
.	.	12ee\	.	.
.	.	&(12dd#\J&)	.	.
4e/)	.	12ddn\L	.	.
.	.	&(12cc\&)	.	.
.	.	12bn\J)	.	.
=42	=42	=42	=42	=42
12B-/L	2.D-\	12b-^/L	2.e\ 2.g\	.
12G#/	.	12g#/	.	>
12A/J	.	12a/J	.	.
12B-/L	.	12b-/L	.	.
12G#/	.	12g#/	.	.
12A/J	.	12a/J	.	.
12B-/L	.	12b-/L	.	.
12G#/	.	12g#/	.	.
12A/J	.	12a/J	.	.
*	*	*v	*v	*
=43	=43	=43	=43
(4f/	2.C\ 2.Gn\ 2.B-\	12gn\L	.
.	.	(12ddd\	.
.	.	12ccc#\J	.
2e/)	.	12eee\L	.
.	.	12ddd\	.
.	.	12bb-\J	.
.	.	12gg\L	.
.	.	12ee\	.
.	.	12dd\J)	.
*v	*v	*	*
=44	=44	=44
*>B1	*>B1	*>B1
*	*^	*
2r	(12bb-/L	12dd\L	.
.	12gg/	12b-\	.
.	12ee/J	12g\J	.
.	12dd/L	12e\L	.
.	12b-/	12d\	.
.	12g/J	12B-\J	.
12G\L	12e/L	4r	>
12C\	12d/	.	.
12CC\J	12B-/J)	.	.
*	*v	*v	*
=45:|!	=45:|!	=45:|!
*>B2	*>B2	*>B2
*	*^	*
2r	(12bb-/L	12dd\L	.
.	12gg/	12b-\	.
.	12ee/J	12g\J	.
.	12dd/L	12e\L	.
.	12b-/	12d\	.
.	12g/J	12B-\J	.
12G\L	12e/L	4r	.
12E\	12d/	.	.
12D\J	12B-/J)	.	.
*	*v	*v	*
=46	=46	=46
*>C	*>C	*>C
12C#\L	12A/L	pp
12D\	(12B-/	.
12F\J	12d/J	.
12E\L	12c#/L	.
12G\	12e/	.
12B-\J	12g/J	.
12A\L	12f/L	.
12G\	12e/	.
12B-\J	12g/J	.
=47	=47	=47
12d\L	12b-\L	.
12c#\	12a\	.
12e\J	12cc#\J	.
12g\L	12ee\L	>
12f\	12dd\	.
(12e\J	12cc#\J	.
12d\L)	12b-/L	.
12c#\	12a/	.
&(12B-\J&)	12g/J)	.
=48	=48	=48
*^	*^	*
[4Cn/ [4A/	4r	(12en/L	4e-\	.
.	.	12f/	.	.
.	.	12f#/J	.	.
2C/_ 2A/_	[2FF\	2r	12g/L	<
.	.	.	12e-/	.
.	.	.	12g/J	.
.	.	.	12a\L	.
.	.	.	12cc\	.
.	.	.	12ee-\J	.
*	*	*v	*v	*
=49	=49	=49	=49
2C/] 2A/]	2FF\]	12ccc\L	.
.	.	12aa\	.
.	.	12gg\J	.
.	.	12ee-\L	>
.	.	12cc\	.
.	.	12b-\J	.
4A/ 4c/	4E-\	12a/L	.
.	.	12cc/	.
.	.	12g/J)	.
=50	=50	=50	=50
*	*	*^	*
(12B-/L	4D\	(12b-/L	4f\	p
12c/	.	12cc/	.	.
12B-/J	.	12b-/J	.	.
8.f'/L)	4r	8.ff'/L)	4r	.
16f/Jk	.	16ff/Jk	.	.
8.B-'/L	4r	8.b-'/L	4r	.
16B-/Jk	.	16b-/Jk	.	.
*	*	*v	*v	*
=51	=51	=51	=51
12g/L	4E-\	(12gg\L	.
12c/	.	12cc\	.
12g/J	.	12gg\J	.
4A/	4A\	4a/)	.
4r	4r	4r	.
=52	=52	=52	=52
*	*	*^	*
(12B-/L	4D\	(12b-/L	4f\	.
12c/	.	12cc/	.	.
12B-/J	.	12b-/J	.	.
8.f'/L)	4r	8.ff'/L)	4r	.
16f/Jk	.	16ff/Jk	.	.
8.B-'/L	4r	8.b-'/L	4r	.
16B-/Jk	.	16b-/Jk	.	.
*	*	*v	*v	*
=53	=53	=53	=53
(12g/L	4E-\	(12gg\L	.
12c/	.	12cc\	.
12g/J	.	12gg\J	.
4A/	4A\)	4a/)	.
4r	4r	4r	.
=54	=54	=54	=54
*	*	*^	*
12B-/L	4D\	(12b-/L	4f\	pp
12c/	.	12cc/	.	.
12B-/J	.	12b-/J	.	.
&(8.f'/L&)	4r	8.ff'/L)	4r	.
16f/k	.	(16ff/k	.	.
8.A'/	4r	8.a/)	4r	.
16A/Jk	.	(16a/Jk	.	.
*	*	*v	*v	*
=55	=55	=55	=55
&(8.G#/L&)	4D\	8.g#'\L)	.
(16G#/k	.	(16g#\k	.
8.f'/)	4r	8.ff'\)	.
16f/Jk	.	(16ff\Jk	.
8.G#'/L	4r	8.g#'/L)	.
16G#/Jk	.	16g#/Jk	.
=56	=56	=56	=56
*	*	*^	*
12A/L	4C\	(12a/L	4e\	.
12Bn/	.	12bn/	.	.
12A/J	.	12a/J	.	.
&(8.e'/L&)	4r	8.ee'/L)	4r	.
16e/k	.	(16ee/k	.	.
&(8.Gn'/&)	4r	8.gn'/)	4r	.
16G/Jk	.	(16g/Jk	.	.
*	*	*v	*v	*
=57	=57	=57	=57
&(8.F#/L&)	4C\	8.f#'/L)	.
(16F#/k	.	(16f#/k	.
8.e-'/)	4r	8.ee-'/)	.
16e-/Jk	.	(16ee-/Jk	.
8.F#'/L	4r	8.f#'/L)	.
16F#/Jk	.	16f#/Jk	.
=58	=58	=58	=58
*	*	*^	*
(12G/L	4BBn\	(12g/L	4d\	p
12A/	.	12a/	.	.
12G/J	.	12g/J	.	.
8.d'/L)	4r	8.dd'/L)	4r	.
16d/Jk	.	(16dd/Jk	.	.
8.G'/L	4r	8.g'/L)	4r	.
16G/Jk	.	16g/Jk	.	.
*	*	*v	*v	*
=59	=59	=59	=59
(12en/L	4C\	(12een\L	.
12A/	.	12a\	.
12e/J	.	12ee\J	.
4F#/)	4F#\	4f#/)	.
4r	4r	4r	.
=60	=60	=60	=60
*	*	*^	*
(12G/L	4BBn\	(12g/L	4d\	<
12A/	.	12a/	.	.
12G/J	.	12g/J	.	.
8.d'/L)	4r	8.dd'/L)	4r	.
(16d/Jk	.	(16dd/Jk	.	.
8.G'/L)	4r	8.g'/L)	4r	.
16G/Jk	.	16g/Jk	.	.
*	*	*v	*v	*
=61	=61	=61	=61
(12fn/L	4D\	(12ffn\L	.
12Bn/	.	12bn\	.
12f/J	.	12ff\J	.
4G#/	4G#\)	4g#/)	.
4r	4r	4r	.
=62	=62	=62	=62
(4gn/	2C\ 2A\	12a\L	mf
.	.	12aa\	.
.	.	12ggn\J	.
4f/)	.	12ff\L	.
.	.	12cc\	.
.	.	12a\J	.
4B-/	4C#\	12g#/L	.
.	.	12gn/	.
.	.	12f#/J	.
=63	=63	=63	=63
4B-^/	2D\	(12fn\L	.
.	.	12ff\	.
.	.	12ee\J	.
4A/	.	12dd/L	.
.	.	12a/	.
.	.	12f/J	.
4A/	4BBn\	12e/L	.
.	.	12e-/	.
.	.	12d/J)	.
*v	*v	*	*
=64	=64	=64
*	*^	*
(4EE/	12dd#/L	4g#\	p
.	12ee/	.	<
.	12ff/J	.	.
4D\ 4G#\	12dd#/L	4g#\	.
.	12ee/	.	.
.	12ff/J	.	.
4G#\ 4d\)	12dd#/L	4g#\	.
.	12ee/	.	.
.	12ff/J	.	.
=65	=65	=65	=65
2.D\ 2.A\ 2.f\	12ddn\L	2.a/ 2.aa/	pp
.	12ee\	.	.
.	12ff\J	.	.
.	12dd\L	.	.
.	12ee\	.	.
.	12ff\J	.	.
.	12dd\L	.	.
.	12ee\	.	.
.	12ff\J	.	.
=66	=66	=66	=66
(4EE/	12dd#/L	4g#\	p
.	12ee/	.	<
.	12ff/J	.	.
4D\ 4G#\	12dd#/L	4g#\	.
.	12ee/	.	.
.	12ff/J	.	.
4G#\ 4d\)	12dd#/L	4g#\	.
.	12ee/	.	.
.	12ff/J	.	.
=67	=67	=67	=67
2.BBn\ 2.A\ 2.d\	12ddn\L	2.a/ 2.aa/	.
.	12ee\	.	.
.	12ff\J	.	.
.	12dd\L	.	.
.	12ee\	.	.
.	12ff\J	.	.
.	12dd\L	.	.
.	12ee\	.	.
.	12ff\J	.	.
=68	=68	=68	=68
4E\ 4dn\	12dd#\L	4g#/ 4gg#/	<
.	12ee\	.	.
.	12ff\J	.	.
2BBn\ 2A\ 2d\	12ddn\L	2a/ 2aa/	.
.	12ee\	.	.
.	12ff\J	.	.
.	12dd\L	.	.
.	12ee\	.	.
.	12ff\J	.	.
=69	=69	=69	=69
4E\ 4dn\	12dd#\L	4g#/ 4gg#/	<
.	12ee\	.	.
.	12ff\J	.	.
2BBn\ 2A\ 2d\	12ddn\L	2a/ 2aa/	.
.	12ee\	.	.
.	12ff\J	.	.
.	12dd\L	.	.
.	12ee\	.	.
.	12ff\J	.	.
=70	=70	=70	=70
4E\ 4dn\	4g#/ 4gg#/	12dd#\L	.
.	.	12ee\	.
.	.	12ff\J	.
[2BB-\ [2F\ [2d\	2r	(12a\L	>
.	.	12ddn\	.
.	.	12a\J	.
.	.	12gn/L	.
.	.	12f/	.
.	.	12d/J	.
*	*v	*v	*
=71	=71	=71
4BB-\] 4F\] 4d\]	12A/L	.
.	12d/	.
.	12e/J	.
!!
4r	12f/L	.
.	12a/	.
.	12dd/J	.
!!
4r	12ee\L	.
.	12ff\)	.
.	24r	.
.	24ff\Jk	.
!!
=72	=72	=72
*k[]	*k[]	*k[]
4EE/	[2g#^/	p
4BB\ 4G#\	.	.
4F\ 4d\	16g#/LL]	.
.	(16a/	.
.	16g#/	.
.	16a/JJ	.
=73	=73	=73
4A\ 4f\	8b'\)	.
.	8r	.
4G#\ 4e\	8.r	.
.	(16ee\LK	.
4D\ &(4B\&)	8.ff'\)	.
.	16ff\Jk	.
=74	=74	=74
*^	*	*
4r	4EE/	[2a^/	.
4C/ 4A/	2A\	.	.
4E/ 4c/	.	16a/LL]	.
.	.	(16b/	.
.	.	16a/	.
.	.	16b/JJ	.
*v	*v	*	*
=75	=75	=75
4F\ 4d\	8cc'\)	.
.	8r	.
4E\ [4c\	8.r	.
.	(16ee\	.
&(4D#\&) 4c\]	8.a'\ 8.aa'\L)	.
.	16a\ 16aa\Jk	.
=76	=76	=76
*	*^	*
4EE/	4a/ (4aa/	2.ddn\	<
4BB\ (4G#\	&(2g#/&) 2gg#/)	.	.
4F\ 4dn\	.	.	.
=77	=77	=77	=77
4A\ 4f\	4r	4r	.
4G#\ 4e\	8.r	4r	.
.	16g#/ 16gg#/	.	.
4D\ 4B\)	8.b/ &(8.bb/L&)	4ee\	.
.	16b/ 16bb/Jk	.	.
=78	=78	=78	=78
*	*	*^	*
4EE/	4b/ (4bb/	2.dd#\	4r	p
2r	2a/ [2aa/)	.	4c\ (4a\	.
.	.	.	4B\ 4gn\	.
*	*	*v	*v	*
=79	=79	=79	=79
2.r	4a/) 4aa/]	[4A\ 4f#\	.
.	8r	4A\] [4fn\	.
.	8ee/ (8eee/L	.	.
.	8.ff/ 8.fff/)	&(4d#^\&) 4f^\]	.
.	16ff/ 16fff/Jk	.	.
*	*v	*v	*
=80	=80	=80
4EEE/ 4EE/	[2g#^\ [2gg#^\	f
4BB\ 4G#\	.	.
4F\ 4dn\	16g#\] 16gg#\LL]	<
.	16a\ (16aa\	.
.	16g#\ 16gg#\	.
.	16a\ 16aa\JJ	.
=81	=81	=81
4A\ 4f\	8b'\ 8bb'\)	.
.	8r	.
4G#\ 4e\	8.r	.
.	16ee\ (16eee\LK	.
4D\ &(4B\&)	8.ff'\ 8.fff'\)	.
.	16ff\ 16fff\Jk	.
=82	=82	=82
(4EE/	[2a\ [2aa\	p
4E\ 4c\	.	.
4A\ 4e\)	16a\] 16aa\LL]	<
.	16b\ (16bb\	.
.	16a\ 16aa\	.
.	16b\ 16bb\JJ)	.
=83	=83	=83
(4FF/	[2cc\ [2ccc\	.
4A\ 4e\	.	.
4c\ 4a\)	16cc\] 16ccc\LL]	.
.	16dd\ 16ddd\	.
.	16cc\ 16ccc\	.
.	16dd\ 16ddd\JJ	.
=84	=84	=84
4FFF#/ 4FF#/	12ee\ 12eee\L	f
.	12ddd\	.
.	12eee\J	.
[2F#\ [2c\ [2e\ [2a\	12ddd^\L	.
.	12ccc\	.
.	12aa\J	.
.	12ee\L	.
.	12dd\	.
.	12ee\J	.
=85	=85	=85
4F#\] 4c\] 4e\] 4a\]	12dd\L	.
.	12cc\	.
.	12a\J	.
4r	12e/L	.
.	12d/	.
.	12e/J	.
4r	12d/L	.
.	12c/	.
.	12A/J	.
=86	=86	=86
4GGG/ 4GG/	12ee\ (12eee\L	f
.	12ddd\	.
.	12eee\J	.
[2E\ [2c\ [2g\	12ddd^\L	.
.	12ccc\	.
.	12gg\J	.
.	12ee\L	.
.	12dd\	.
.	12ee\J	.
=87	=87	=87
4E\] 4c\] 4g\]	12dd\L	.
.	12cc\	.
.	12g\J	.
4r	12e/L	.
.	12d/	.
.	12e/J	.
4r	12d/L	.
.	12c/	.
.	12G/J)	.
=88	=88	=88
4GGG#/ 4GG#/	12ee\ 12eee\L	.
.	12ddd\	.
.	12eee\J	.
[2E\ [2c\ [2g#\	12ddd\L	f
.	12ccc\	.
.	12gg#\J	.
.	12ee\L	.
.	12dd\	.
.	12ee\J	.
=89	=89	=89
4E\] 4c\] 4g#\]	12dd\L	.
.	12cc\	.
.	12g#\J	.
4r	12e/L	.
.	12d/	.
.	12e/J	.
4r	12d/L	.
.	12c/	.
.	12G#/J	.
=90	=90	=90
4AAA/ 4AA/	12ee\ (12eee\L	.
.	12ddd\	.
.	12eee\J	.
2E\ 2B-\ [2gn\	12ddd\L	.
.	12ccc#\	.
.	12ggn\J	.
.	12ee\L	.
.	12dd\	.
.	12ee\J	.
=91	=91	=91
&(4E\&) 4B\ 4g\]	12dd\L	.
.	12cc#\	.
.	12g\J	.
4r	12e/L	.
.	12d/	.
.	12e/J	.
4r	12d/L	.
.	12c#/	.
.	12G/J)	.
=92	=92	=92
4DDD/ 4DD/	(12ff\ 12fff\L	ff
.	12eee\)	.
.	12fff\J	.
[2D\ [2A\ [2B-\ [2f\	12eee^\L	.
.	12ddd\	.
.	12bb-\J	.
.	12ff\L	.
.	12ee\	.
.	12ff\J	.
=93	=93	=93
4D\] 4A\] 4B-\] 4f\]	24ee\LL	.
.	24dd\	.
.	24b-\	>
.	24f\	.
.	24e\	.
.	24d\JJ	.
4r	24B-\LL	.
.	24F\	.
.	24B-\	.
.	24d\	.
.	24e\	.
.	24f\JJ	.
4r	24b-\LL	.
.	24dd\	.
.	24ee\	.
.	24ff'\	.
.	24r	.
.	24ff\JJ	.
=94	=94	=94
4EE/	[2g#^/	p
4BBn\ (4G#\	.	.
4F\ 4d\	16g#/LL]	.
.	16a/	.
.	16g#/	.
.	16a/JJ	.
=95	=95	=95
4A\ 4f\	8b'\	>
.	8r	.
4G#\ 4e\	8.r	.
.	16ee\LK	.
4D\ 4B\)	&(8.ff'\&)	.
.	16ff\Jk	.
=96	=96	=96
4EE/	[2a^/	<
4C\ 4A\	.	.
4E\ 4c\	16a/LL]	.
.	(16b/	.
.	16a/	.
.	16b/JJ	.
=97	=97	=97
4F\ 4d\	8cc'\)	>
.	8r	.
4E\ [4c\	8.r	.
.	16ee\	.
4D#\ &(4c\]&)	8.a'\ 8.aa'\L	.
.	16a\ 16aa\Jk	.
=98	=98	=98
*	*^	*
4EE/	4a/ (4aa/	2.ddn\	.
4BB\ (4G#\	&(2g#/&) 2gg#/)	.	<
4F\ 4dn\	.	.	.
=99	=99	=99	=99
4A\ 4f\	4r	4r	.
4G#\ 4e\	8.r	4r	.
.	16g#/ 16gg#/	.	.
4D\ 4B\)	8.b/ &(8.bb/L&)	4ee\	.
.	16b/ 16bb/Jk	.	.
=100	=100	=100	=100
*	*	*^	*
4EE/	4b/ (4bb/	2.dd#\	4r	.
2r	[2a/ [2aa/)	.	4c\ 4a\	.
.	.	.	4B\ 4gn\	.
*	*	*v	*v	*
=101	=101	=101	=101
2.r	4a/] 4aa/]	[4A\ 4f#\	.
.	8r	4A\] [4fn\	.
.	8ee/ (8eee/L	.	.
.	8ffn'/ 8fffn'/)	4d#\ 4f\]	.
.	16r	.	.
.	16ff/ 16fff/Jk	.	.
*	*v	*v	*
=102	=102	=102
4EEE/ 4EE/	[2g#^\ [2gg#^\	f
4BB\ 4G#\	.	.
4F\ 4d\	16g#\] 16gg#\LL]	.
.	16a\ (16aa\	.
.	16g#\ 16gg#\	.
.	16a\ 16aa\JJ	.
=103	=103	=103
4A\ 4f\	8b'\ 8bb'\)	>
.	8r	.
4G#\ 4e\	8.r	.
.	16ee\ (16eee\LK	.
4D\ &(4B\&)	8ff'\ 8fff'\)	.
.	16r	.
.	16ff\ 16fff\Jk	.
=104	=104	=104
(4EE/	[2a\ [2aa\	mf
4E\ 4c\	.	.
4A\ 4e\)	16a\] 16aa\LL]	.
.	16b\ 16bb\	.
.	16a\ 16aa\	.
.	16b\ 16bb\JJ	.
=105	=105	=105
(4DD/	[2cc\ [2ccc\	f
4D\ 4G#\	.	.
4G#\ 4f\)	16cc\] 16ccc\LL]	.
.	16dd\ 16ddd\	.
.	16cc\ 16ccc\	.
.	16dd\ 16ddd\JJ	.
=106	=106	=106
(4CC/	12r	.
.	(12ee'\L	ff
.	12eee\J	.
[4B-\	12ddd\L	.
.	12ccc\	.
.	12ee\J	.
4B-\] 4g#\)	12dd/L	.
.	12cc/	.
.	12e/J)	>
=107	=107	=107
*^	*	*
4C#/	2.FF\ 2.A\	12r	.
.	.	12a\L	.
.	.	12aa\J	.
4D/	.	16ggn\LL	.
.	.	16ff\	.
.	.	16ee\	.
.	.	16dd\JJ	.
4D#/	.	(16ccn\LL	.
.	.	16b\)	.
.	.	(16b\	.
.	.	16a\JJ)	.
*v	*v	*	*
=108	=108	=108
*	*^	*
4EE/	(12ee/L	4r	p
.	12e/	.	.
.	12g#/J	.	.
(4c\ 4d#\	4r	12a\L	pp
.	.	12cc\	.
.	.	12ff\J	.
4B\) 4dn\	12dd#/L	4g#\	.
.	12ee/	.	.
.	12ccc/J)	.	.
*	*v	*v	*
=109	=109	=109
8AAA'/ 8AA'/	8a'/	.
8r	8r	.
8.E\ 8.c\ 8.a\	8.aa\	.
==	==	==
*-	*-	*-
!!!ENC: Craig Stuart Sapp
!!!END: 2008/07/16/
